FINK
CUT[KOMMT BRUEDER TRINKET FROH]
REG[Europa, Mitteleuropa, Deutschland]
KEY[F0552  16  F 2/4]
MEL[5_  5_.34_2_  1_3_2_
    2_  3_.13_4#_  6__5_
    5_  5_.34_2_  1_3_2_
    2_  3_.13_4#_  6__5_
    5_  2_.32_5_  2_.32_
    2_  3_.21_-7_  1_2_3_
    3_  4_.45_5_  6__0_
    4_  2_.25_5_  1_0-51_0
    1  3_035_05  +1__0_ //] >>
FCT[Studenten -, Trink - Lied]
